assets/icons/circle_stroke.svg

<svg fill="none" height="25" viewBox="0 0 25 25" width="25"><path clip-rule="evenodd" d="m25 12.5c0 6.904-5.596 12.5-12.5 12.5s-12.5-5.596-12.5-12.5 5.596-12.5 12.5-12.5 12.5 5.596 12.5 12.5zm-12.5 11.5c6.351 0 11.5-5.149 11.5-11.5s-5.149-11.5-11.5-11.5-11.5 5.149-11.5 11.5 5.149 11.5 11.5 11.5z" fill="#18303f" fill-rule="evenodd"/></svg>

<svg width="25" height="25" viewBox="0 0 25 25" fill="none"><g id="circle_stroke"><path fill-rule="evenodd" clip-rule="evenodd" d="M25 12.5C25 19.404 19.404 25 12.5 25S0 19.404 0 12.5 5.596 0 12.5 0 25 5.596 25 12.5ZM12.5 24C18.851 24 24 18.851 24 12.5S18.851 1 12.5 1 1 6.149 1 12.5 6.149 24 12.5 24Z" fill="#18303F" yggColor="iconDefault"/></g></svg>
